src/svg/monochrome/32/globe-2.svg

<svg width="32" height="32" viewBox="0 0 32 32" fill="none" xmlns="http://www.w3.org/2000/svg">
<g id="globe-2">
<path id="Union" d="M16 2.02539C21.773 2.02539 26.4746 6.72702 26.4746 12.5C26.4746 17.9357 22.3061 22.4192 17 22.9248V24C17 24.0573 16.9936 24.1133 16.9844 24.168C17.8483 24.4682 18.5305 25.1509 18.8311 26.0146C18.886 26.0053 18.9424 26 19 26H25L25.1025 26.0049C25.6067 26.0562 26 26.4823 26 27C26 27.5177 25.6067 27.9438 25.1025 27.9951L25 28H19C18.9423 28 18.886 27.9937 18.8311 27.9844C18.4233 29.1571 17.3116 30 16 30C14.6883 30 13.5756 29.1573 13.168 27.9844C13.1133 27.9936 13.0573 28 13 28H7C6.44772 28 6 27.5523 6 27C6 26.4477 6.44772 26 7 26H13C13.0573 26 13.1133 26.0054 13.168 26.0146C13.4684 25.151 14.151 24.4684 15.0146 24.168C15.0054 24.1133 15 24.0573 15 24V22.9248C9.69388 22.4192 5.52539 17.9357 5.52539 12.5C5.52539 6.72702 10.227 2.02539 16 2.02539ZM16 26C15.4477 26 15 26.4477 15 27C15 27.5523 15.4477 28 16 28C16.5523 28 17 27.5523 17 27C17 26.4477 16.5523 26 16 26ZM13.0254 13.9746C13.1573 15.8919 13.5402 17.5787 14.0703 18.8379C14.4024 19.6265 14.7732 20.202 15.1348 20.5654C15.4199 20.852 15.6633 20.972 15.8594 21.0098C15.9053 21.0033 15.9523 21 16 21C16.0471 21 16.0933 21.0035 16.1387 21.0098C16.3351 20.9724 16.5792 20.8529 16.8652 20.5654C17.2268 20.202 17.5976 19.6265 17.9297 18.8379C18.4598 17.5787 18.8427 15.8919 18.9746 13.9746H13.0254ZM7.60547 13.9746C8.10603 16.825 10.0287 19.1939 12.6123 20.3193C12.4923 20.0873 12.3789 19.8453 12.2734 19.5947C11.6322 18.0717 11.2061 16.1198 11.0713 13.9746H7.60547ZM20.9287 13.9746C20.7939 16.1198 20.3678 18.0717 19.7266 19.5947C19.621 19.8455 19.5068 20.0872 19.3867 20.3193C21.9708 19.194 23.8939 16.8253 24.3945 13.9746H20.9287ZM12.6123 4.67969C9.73158 5.93441 7.67025 8.73562 7.48828 12.0254H11.0312C11.0817 9.48913 11.5338 7.16192 12.2734 5.40527C12.3791 5.15441 12.4921 4.91194 12.6123 4.67969ZM16 3.97461C15.7843 3.97461 15.4927 4.07487 15.1348 4.43457C14.7732 4.79796 14.4024 5.37346 14.0703 6.16211C13.4498 7.63606 13.03 9.69571 12.9795 12.0254H19.0205C18.97 9.69571 18.5502 7.63606 17.9297 6.16211C17.5976 5.37346 17.2268 4.79796 16.8652 4.43457C16.5073 4.07487 16.2157 3.97461 16 3.97461ZM19.3867 4.67969C19.507 4.91206 19.6209 5.15426 19.7266 5.40527C20.4662 7.16192 20.9183 9.48913 20.9688 12.0254H24.5117C24.3297 8.73531 22.2679 5.93424 19.3867 4.67969Z" fill="#3D3C3C"/>
</g>
</svg>

<svg xmlns="http://www.w3.org/2000/svg" width="32" height="32" fill="currentColor" viewBox="0 0 32 32">
  <path d="M16 2.025c5.773 0 10.475 4.702 10.475 10.475 0 5.436-4.169 9.92-9.475 10.425V24a.938.938 0 0 1-.016.168c.864.3 1.546.983 1.847 1.847A1.01 1.01 0 0 1 19 26h6l.102.005a1 1 0 0 1 0 1.99L25 28h-6a1.01 1.01 0 0 1-.169-.016 2.998 2.998 0 0 1-5.663 0A.929.929 0 0 1 13 28H7a1 1 0 1 1 0-2h6c.057 0 .113.005.168.015a3 3 0 0 1 1.847-1.847A1.011 1.011 0 0 1 15 24v-1.075c-5.306-.506-9.475-4.99-9.475-10.425C5.525 6.727 10.227 2.025 16 2.025ZM16 26a1 1 0 1 0 0 2 1 1 0 0 0 0-2Zm-2.975-12.025c.132 1.917.515 3.604 1.045 4.863.332.788.703 1.364 1.065 1.727.285.287.528.407.724.445a1.003 1.003 0 0 1 .28 0c.196-.038.44-.157.726-.445.362-.363.733-.939 1.065-1.727.53-1.26.913-2.946 1.045-4.863h-5.95Zm-5.42 0a8.56 8.56 0 0 0 5.007 6.344 10.49 10.49 0 0 1-.339-.724c-.64-1.523-1.067-3.475-1.202-5.62H7.605Zm13.324 0c-.135 2.145-.561 4.097-1.202 5.62-.106.25-.22.492-.34.724a8.56 8.56 0 0 0 5.008-6.344h-3.466ZM12.612 4.68c-2.88 1.254-4.942 4.056-5.124 7.345h3.543c.05-2.536.503-4.863 1.242-6.62.106-.25.22-.493.34-.725ZM16 3.975c-.216 0-.507.1-.865.46-.362.363-.733.938-1.065 1.727-.62 1.474-1.04 3.534-1.09 5.863h6.04c-.05-2.33-.47-4.389-1.09-5.863-.332-.789-.703-1.364-1.065-1.727-.358-.36-.65-.46-.865-.46Zm3.387.705c.12.232.234.474.34.725.74 1.757 1.191 4.084 1.242 6.62h3.543c-.182-3.29-2.244-6.09-5.125-7.345Z"/>
</svg>
